X: 39643
T: Temple Rise
R: reel
M: 4/4
K: Aminor
|:A3B e2 dB|e2 dB GABG|EAAB edef|(3gfe dB BAAG|
A3B e2 dB|e2 dB GABG|EAAB edef|(3gfe dB BA A2:|
|:ea a2 b2 ag|egdg egdg|ea a2 b2 ag|egdB BA A2|
ea a2 b2 ag|egdg egdg|bgaf gefd|(3efg dB BA A2:|

